public/img/spad-mission.svg

<svg width="80" height="80" viewBox="0 0 80 80" fill="none" xmlns="http://www.w3.org/2000/svg">
<path fill-rule="evenodd" clip-rule="evenodd" d="M0 0H5V75H80V80H0V0ZM74.085 15.565C74.3393 15.773 74.55 16.0292 74.7052 16.3187C74.8604 16.6083 74.957 16.9256 74.9895 17.2525C75.0221 17.5794 74.9898 17.9095 74.8947 18.2239C74.7995 18.5384 74.6433 18.831 74.435 19.085L51.935 46.585C51.7139 46.8549 51.4386 47.0756 51.1271 47.2327C50.8155 47.3899 50.4745 47.4801 50.126 47.4975C49.7775 47.5149 49.4292 47.4592 49.1035 47.3339C48.7778 47.2086 48.482 47.0165 48.235 46.77L35.3 33.835L17.02 58.97C16.6201 59.4785 16.0387 59.8122 15.3979 59.9009C14.7571 59.9897 14.1069 59.8266 13.5839 59.446C13.0608 59.0654 12.7057 58.4968 12.5931 57.8598C12.4804 57.2228 12.6191 56.5669 12.98 56.03L32.98 28.53C33.1923 28.2376 33.4654 27.9946 33.7806 27.8179C34.0959 27.6412 34.4456 27.535 34.8059 27.5065C35.1661 27.4779 35.5282 27.5279 35.8673 27.6528C36.2064 27.7777 36.5144 27.9746 36.77 28.23L49.815 41.28L70.565 15.915C70.773 15.6607 71.0292 15.45 71.3187 15.2948C71.6083 15.1396 71.9256 15.043 72.2525 15.0105C72.5794 14.9779 72.9095 15.0102 73.2239 15.1053C73.5384 15.2005 73.831 15.3567 74.085 15.565Z" fill="#573CDA"/>
</svg>

<svg width="80" height="80" fill="none" xmlns="http://www.w3.org/2000/svg"><path fill-rule="evenodd" clip-rule="evenodd" d="M0 0h5v75h75v5H0V0zm74.085 15.565a2.5 2.5 0 01.35 3.52l-22.5 27.5a2.5 2.5 0 01-3.7.185L35.3 33.835 17.02 58.97a2.5 2.5 0 01-4.04-2.94l20-27.5a2.5 2.5 0 013.79-.3l13.045 13.05 20.75-25.365a2.5 2.5 0 013.52-.35z" fill="#573CDA"/></svg>
